svgs/regular/garage.svg

<svg xmlns="http://www.w3.org/2000/svg" viewBox="0 0 640 512"><!--! Font Awesome Pro 6.6.0 by @fontawesome - https://fontawesome.com License - https://fontawesome.com/license (Commercial License) Copyright 2024 Fonticons, Inc. --><path d="M323 51.1c-1.9-.8-4.1-.8-6 0L63 154.1c-9.1 3.7-15 12.5-15 22.2L48 488c0 13.3-10.7 24-24 24s-24-10.7-24-24L0 176.3c0-29.3 17.8-55.7 44.9-66.7L299 6.6c13.5-5.5 28.6-5.5 42.1 0l254 103c27.2 11 45 37.4 45 66.7L640 488c0 13.3-10.7 24-24 24s-24-10.7-24-24l0-311.7c0-9.8-5.9-18.6-15-22.2L323 51.1zM144 368l0 120c0 13.3-10.7 24-24 24s-24-10.7-24-24l0-256c0-22.1 17.9-40 40-40l368 0c22.1 0 40 17.9 40 40l0 256c0 13.3-10.7 24-24 24s-24-10.7-24-24l0-120-352 0zm0-48l352 0 0-80-352 0 0 80zm136 96l80 0c13.3 0 24 10.7 24 24s-10.7 24-24 24l-80 0c-13.3 0-24-10.7-24-24s10.7-24 24-24z"/></svg>

<svg xmlns="http://www.w3.org/2000/svg" viewBox="0 0 640 512"><!--! Font Awesome Pro 6.5.2 by @fontawesome - https://fontawesome.com License - https://fontawesome.com/license (Commercial License) Copyright 2024 Fonticons, Inc. --><path d="M323 51.1c-1.9-.8-4.1-.8-6 0L63 154.1c-9.1 3.7-15 12.5-15 22.2V488c0 13.3-10.7 24-24 24s-24-10.7-24-24V176.3c0-29.3 17.8-55.7 44.9-66.7L299 6.6c13.5-5.5 28.6-5.5 42.1 0l254 103c27.2 11 45 37.4 45 66.7V488c0 13.3-10.7 24-24 24s-24-10.7-24-24V176.3c0-9.8-5.9-18.6-15-22.2L323 51.1zM144 368V488c0 13.3-10.7 24-24 24s-24-10.7-24-24V232c0-22.1 17.9-40 40-40H504c22.1 0 40 17.9 40 40V488c0 13.3-10.7 24-24 24s-24-10.7-24-24V368H144zm0-48H496V240H144v80zm136 96h80c13.3 0 24 10.7 24 24s-10.7 24-24 24H280c-13.3 0-24-10.7-24-24s10.7-24 24-24z"/></svg>
